X:311
T:Reel 311
M:4/4
K:Gmaj
L:1/8
G2Bd gdBd|cBAc BGEF|G2Bd gdBd|ecAF GFED|G2Bd gdBd|cBAc BGEF|G2Bd gdBd|ecAF G2|ef|gfed edBd|cBAc B2Bd|eged edBd|egfa g2ef|gfed edBd|cBAg F3e|gfed edBd|egfa gdef|
